X:1
T:Title
%%score ( 1 2 ) ( 3 4 )
L:1/8
Q:1/4=100
M:4/4
K:G
V:1 treble nm="Midi_20"
V:2 treble 
V:3 bass nm="Midi_20"
V:4 bass 
V:1
"^Propior Deo (6 4. 6 4. 6 6 4.)""^Sir Arthur Sullivan\n(1842-1900)""^Nearer, my God, to Thee" B4 A2 B2 | %1
 G2 D2 E4 | D4 F2 A2 | B8 || B4 A2 B2 | G2 D2 E2 G2 | D4 (F2 A2) | G8 || c4 c2 d2 | e2 d2 (c2 B2) | %10
 A4 B2 E2 | c2 B2 A4 | B4 A2 B2 | (G4 E4) | D4 F2 A2 | G8 |] %16
V:2
 D4 D2 D2 | D2 B,2 C4 | C4 C2 C2 | B,8 || D4 D2 D2 | D2 B,2 C2 E2 | D4 D4 | D8 || G4 G2 G2 | %9
 G2 =F2 E4 | E4 E2 E2 | E2 E2 F4 | G4 G2 G2 | (D4 C4) | C4 D2 F2 | G8 |] %16
V:3
 D4 C2 D2 | B,2 G,2 G,4 | F,4 A,2 F,2 | G,8 || D4 C2 D2 | B,2 G,2 G,2 G,2 | F,4 C4 | B,8 || %8
 E4 C2 B,2 | C3 C C4 | C4 ^G,2 G,2 | %11
"^5. Or if on joyful wing\n    Cleaving the sky,\n    Sun, moon and stars forgot,\n    Upwards I fly,\n    Still all my song shall be,\n    Nearer, my God, to Thee,\n    Nearer to Thee.""^1. Nearer, my God, to Thee,\n    Nearer to Thee!\n    E'en though it be a cross\n    That raiseth me,\n    Still all my song would be,\n    Nearer, my God, to Thee,\n    Nearer to Thee.\n\n2. Though, like the wanderer,\n    The sun gone down,\n    Darkness be over me,\n    My rest a stone,\n    Yet in my dreams I'd be\n    Nearer, my God, to Thee,\n    Nearer to Thee." A,2 B,2 C4 | %12
 B,4 C2 D2 | %13
 (B,4"^3. There let my way appear\n    Steps into heaven,\n    All that Thou send'st to me\n    In mercy given,\n   Angels to beckon me\n   Nearer, my God, to Thee,\n   Nearer to Thee. \n\n4. Then, with my waking thoughts\n    Bright with Thy praise,\n    Out of my stony griefs\n    Bethel I'll raise,\n    So by my woes to be\n    Nearer, my God, to Thee,\n    Nearer to Thee." G,4) | %14
 F,4 C2 C2 | B,8 |] %16
V:4
 G,4 G,2 G,2 | G,2 G,2 C,4 | D,4 D,2 D,2 | G,,8 || G,4 G,2 G,2 | G,2 G,2 C,2 C,2 | D,4 D,4 | G,8 || %8
 C,4 E,2 G,2 | C3 C, C,4 | E,4 E,2 E,2 | A,,2 A,,2 D,4 | G,4 G,2 G,2 | (G,4 C,4) | D,4 D,2 D,2 | %15
 G,,8 |] %16

